X:533
M:C|
L:1/8
K:F
f|cf f2 efgb|af f2 GABd|cf f2 efga|bagf efgb|afeg fBAc|BAGF EFGB|

